X: 176
T: Johnnie Cope
M:4/4
R:song
L:1/8
Z:added by Alf 
K:Bm
P:Intro and ending
e2|f2ed e2de|f2ed e2de|f2e2 d2c2|B6|
P:Verse
|:F2|B2B2 d2e2|f2B2 B2cB|A2A2 c2d2|efed c2c2|
d2d2 e2e2|f2a2 c3c|B2f2 e2c2|B4 B2:|
P:Chorus
d2dd d2A2|d2f2 a3d|c2d2 e2A2|c2d2 e3e|
d2d2 e2e2|f2a2 c3c|B2f2 e2c2|B4 B4|
P:Riff after chorus
B2f2 edc2|B4 B4|]
